assets/svg/icon-large-redpoint-diamond-white.svg

<?xml version="1.0" encoding="UTF-8" standalone="no"?>
<svg width="95px" height="64px" viewBox="0 0 95 64" version="1.1" xmlns="http://www.w3.org/2000/svg" xmlns:xlink="http://www.w3.org/1999/xlink">
    <!-- Generator: Sketch 3.8.3 (29802) - http://www.bohemiancoding.com/sketch -->
    <title>white/icon-large-redpoint-diamond-white</title>
    <desc>Created with Sketch.</desc>
    <defs></defs>
    <g id="white" stroke="none" stroke-width="1" fill="none" fill-rule="evenodd">
        <g id="icons,-large-detailed-white" transform="translate(-258.000000, -743.000000)" fill="#FFFFFF">
            <g id="white/icon-large-redpoint-diamond-white" transform="translate(258.000000, 743.000000)">
                <g id="Shape">
                    <g id="PaaS">
                        <g id="connectors_v1.3_2015-11-15_Kris">
                            <g id="Steps">
                                <path d="M94.550944,17.8716982 L94.550944,17.7509434 L94.550944,17.6301886 L94.550944,17.3886792 C94.550944,17.3886792 94.550944,17.3886792 94.550944,17.2679246 C94.550944,17.1471698 94.550944,17.026415 94.430188,17.026415 L94.430188,17.026415 C94.430188,16.9056604 94.309434,16.9056604 94.309434,16.7849056 L81.871698,0.845283 C81.871698,0.7245284 81.750944,0.6037736 81.630188,0.3622642 C81.509434,0.2415094 81.509434,0.2415094 81.38868,0.2415094 C81.267924,0.1207548 81.026416,0 80.784906,0 L13.886792,0 L13.886792,0 L13.645284,0 L13.645284,0 L13.524528,0 C13.524528,0 13.524528,0 13.403774,0 C13.403774,0 13.283018,0 13.283018,0.1207548 C13.283018,0.1207548 13.283018,0.1207548 13.162264,0.1207548 L13.162264,0.1207548 L0.24151,16.7849056 C0.24151,16.9056604 0.120754,16.9056604 0.120754,17.026415 L0.120754,17.026415 C0.120754,17.1471698 0.120754,17.1471698 0,17.2679246 L0,17.3886792 L0,17.509434 L0,17.6301886 L0,17.7509434 L0,17.7509434 C0,17.7509434 0,17.8716982 0.120754,17.8716982 C0.120754,17.8716982 0.120754,17.9924528 0.24151,17.9924528 L0.24151,17.9924528 L46.973584,63.7584906 L47.09434,63.8792452 L47.09434,63.8792452 C47.215094,63.8792452 47.215094,64 47.33585,64 L47.33585,64 L47.577358,64 L47.577358,64 L47.698114,64 L47.698114,64 L47.818868,64 L47.818868,64 L47.939622,64 L48.060378,64 L48.181132,64 C48.181132,64 48.301886,64 48.301886,63.8792452 L48.301886,63.8792452 L94.18868,18.1132076 L94.18868,18.1132076 C94.430188,18.1132076 94.430188,17.9924528 94.550944,17.8716982 C94.550944,17.9924528 94.550944,17.8716982 94.550944,17.8716982 L94.550944,17.8716982 L94.550944,17.8716982 L94.550944,17.8716982 Z M49.992452,1.9320754 L78.732076,1.9320754 L64.483018,16.181132 L49.992452,1.9320754 L49.992452,1.9320754 L49.992452,1.9320754 Z M61.94717,16.4226416 L33.569812,16.4226416 L47.698114,2.2943396 L61.94717,16.4226416 L61.94717,16.4226416 L61.94717,16.4226416 Z M30.913208,16.3018868 L16.301886,1.9320754 L45.162264,1.9320754 L30.913208,16.3018868 L30.913208,16.3018868 L30.913208,16.3018868 Z M63.154716,18.4754716 L47.698114,60.3773584 L32.120754,18.4754716 L63.154716,18.4754716 L63.154716,18.4754716 L63.154716,18.4754716 Z M80.784906,2.6566038 L91.65283,16.4226416 L67.018868,16.4226416 L80.784906,2.6566038 L80.784906,2.6566038 L80.784906,2.6566038 Z M14.007548,2.4150944 L28.256604,16.4226416 L3.018868,16.4226416 L14.007548,2.4150944 L14.007548,2.4150944 L14.007548,2.4150944 Z M30.067924,18.4754716 L45.283018,59.5320754 L3.381132,18.4754716 L30.067924,18.4754716 L30.067924,18.4754716 L30.067924,18.4754716 Z M50.113208,59.5320754 L65.328302,18.4754716 L91.290566,18.4754716 L50.113208,59.5320754 L50.113208,59.5320754 L50.113208,59.5320754 Z" id="Shape"></path>
                            </g>
                        </g>
                    </g>
                </g>
            </g>
        </g>
    </g>
</svg>

<svg width="95" height="64" viewBox="0 0 95 64" xmlns="http://www.w3.org/2000/svg"><title>white/icon-large-redpoint-diamond-white</title><path d="M94.55 17.872v-.483-.121c0-.12 0-.242-.12-.242 0-.12-.12-.12-.12-.241L81.871.845c0-.12-.121-.241-.242-.483-.12-.12-.12-.12-.241-.12A.922.922 0 0 0 80.785 0h-67.26-.121s-.121 0-.121.12h-.12L.241 16.786c0 .12-.121.12-.121.241s0 .121-.121.242v.482s0 .122.12.122c0 0 0 .12.122.12l46.732 45.766.12.121c.121 0 .121.121.242.121h.845s.12 0 .12-.12L94.19 18.112c.241 0 .241-.12.362-.241 0 .12 0 0 0 0zM49.993 1.932h28.74l-14.249 14.25-14.49-14.25zm11.955 14.49H33.57L47.698 2.295l14.25 14.129zm-31.034-.12L16.302 1.932h28.86l-14.249 14.37zm32.242 2.173L47.698 60.377 32.121 18.475h31.034zm17.63-15.818l10.868 13.766H67.019L80.785 2.657zm-66.777-.242l14.249 14.008H3.019L14.008 2.415zm16.06 16.06l15.215 41.057L3.381 18.475h26.687zm20.045 41.057l15.215-41.057h25.963L50.113 59.532z" fill="#FFF" fill-rule="evenodd"/></svg>
